X:375
T:Walter Bulwer's Polka No. 1
R:polka 32
C:Trad. ed. Barry Callaghan
S:'Hard Core English' page 53C
O:England
A:Norfolk
B:Hard Core English ISBN 978 085418 201 5
Z:PJHeadford 2008
M:4/4
L:1/8
Q:1/4=200
K:G
|:Bc|dcBd g3f|e2A2 A3B|cBAc f3e|d2B2 B2Bc|
dcBd g3f|e2A2 A2AG|FGAB cdef|g2g2 g2:|
K:D
|:z2|a2fg a2fg|agfg e4|e2a2 gfe2|dcde f4|
a2fg a2fg|agfg e4|e2a2 gfe2|d6:|]
W:Recorded from fiddler Walter Bulwer (Shipdham, Norfolk) by
W:Mervyn Plunkett 1959, Bill Leader 1959.

